svg/fluentui-system-icons/ic_fluent_arrow_sort_20_regular.svg

<svg width="20" height="20" viewBox="0 0 20 20" fill="none" xmlns="http://www.w3.org/2000/svg">
<path d="M2.35355 7.35418L4.99792 4.70981V16.5C4.99792 16.7761 5.22178 17 5.49792 17C5.77407 17 5.99792 16.7761 5.99792 16.5V4.7053L8.64682 7.3542C8.84209 7.54946 9.15867 7.54946 9.35393 7.3542C9.54919 7.15893 9.54919 6.84235 9.35393 6.64709L5.86386 3.15701L5.85387 3.14675C5.81608 3.10895 5.77374 3.07847 5.72861 3.05531C5.65697 3.01841 5.57828 2.99998 5.49959 3L5.49792 3C5.3441 3 5.20649 3.06947 5.11477 3.17874L1.64645 6.64707C1.45118 6.84233 1.45118 7.15891 1.64645 7.35418C1.84171 7.54944 2.15829 7.54944 2.35355 7.35418ZM17.6468 12.6458L15.0025 15.2902L15.0025 3.5C15.0025 3.22386 14.7786 3 14.5025 3C14.2263 3 14.0025 3.22386 14.0025 3.5L14.0025 15.2947L11.3536 12.6458C11.1583 12.4505 10.8417 12.4505 10.6464 12.6458C10.4512 12.8411 10.4512 13.1577 10.6464 13.3529L14.1365 16.843L14.1465 16.8533C14.1843 16.891 14.2266 16.9215 14.2718 16.9447C14.3434 16.9816 14.4221 17 14.5008 17L14.5025 17C14.6563 17 14.7939 16.9305 14.8856 16.8213L18.3539 13.3529C18.5492 13.1577 18.5492 12.8411 18.3539 12.6458C18.1587 12.4506 17.8421 12.4506 17.6468 12.6458Z" fill="#212121"/>
</svg>

<svg xmlns="http://www.w3.org/2000/svg" width="20" height="20"><path d="M2.354 7.354 4.998 4.71V16.5a.5.5 0 0 0 1 0V4.705l2.649 2.65a.5.5 0 0 0 .707-.708l-3.49-3.49-.01-.01A.5.5 0 0 0 5.5 3h-.002a.499.499 0 0 0-.383.179L1.646 6.647a.5.5 0 1 0 .708.707Zm15.293 5.292-2.644 2.644V3.5a.5.5 0 0 0-1 0v11.795l-2.65-2.65a.5.5 0 0 0-.707.708l3.49 3.49.01.01a.502.502 0 0 0 .355.147h.002a.5.5 0 0 0 .383-.179l3.468-3.468a.5.5 0 1 0-.707-.707Z"/></svg>
